X:1
T: Miss Grace Hay's Delight
C:
R:Jig
Q:180
K:G
M:6/8
L:1/16
|:G2|G4c2 B4c2|d2B2d2 e2f2g2|G4c2 B4c2|d2B2G2 A2F2D2|
E4C2 C2E2G2|F4D2 D4c2|Bcd2B2 c2A2F2|G6G4:|
d4g2 f4g2|a2f2d2 e2^c2A2|f2g2a2 B2^c2d2|e2f2d2 ^c2B2A2|
a2f2a2 g2e2g2|f2d2f2 e2^c2A2|B2g2f2 e2d2^c2|d4d2 d2c2B2|
c4c2 c2a2c2|B4B2 B2g2B2|A2B2A2 A2B2c2|d2B2G2 A2F2D2|
E4C2 C2E2G2|F4D2 D4c2|Bcd2B2 c2A2F2|G6G4||
